X: 14546
T: Gan Ainm
R: barndance
M: 4/4
K: Dmajor
FG|AAfe d2FG|AFBA G2ED|CEAc e2 (3GFE|DFAd f2FG|
AAfe d2FG|AFBA G2EF|GBAG FGEF|D2d2 d2:|
|:fg|afde d2A2|dAFA B2A2|EDCE AGFE|DEFG A2fg|
afde d2A2|dAFA B2A2|EFGB AGEF|D2d2 d2:|
FG|ABAF A2fg|abaf d2cd|efed BGBd|cedB A2FG|
ABAF A2fg|abaf d2cd|efed cedB|A2a2 a2|
|:d'c'|b2g2 gbd'b|a2f2 fAdf|agec Aceg|bafd A2d'c'|
b2g2 gbd'b|a2f2 fAdf|agec Agfe|d2d'2 d'2:|

